dist/static/img/svg/ic_ps-graph.svg

<svg width="26" height="22" viewBox="0 0 26 22" fill="none" xmlns="http://www.w3.org/2000/svg">
<path fill-rule="evenodd" clip-rule="evenodd" d="M14.8571 1.46667H11.1429C10.9377 1.46667 10.7714 1.63083 10.7714 1.83333V20.1667C10.7714 20.3692 10.9377 20.5333 11.1429 20.5333H14.8571C15.0623 20.5333 15.2286 20.3692 15.2286 20.1667V1.83333C15.2286 1.63083 15.0623 1.46667 14.8571 1.46667ZM24.1429 5.13333H20.4286C20.2234 5.13333 20.0571 5.2975 20.0571 5.5V20.1667C20.0571 20.3692 20.2234 20.5333 20.4286 20.5333H24.1429C24.348 20.5333 24.5143 20.3692 24.5143 20.1667V5.5C24.5143 5.2975 24.348 5.13333 24.1429 5.13333ZM5.57143 8.8H1.85714C1.65201 8.8 1.48571 8.96416 1.48571 9.16667V20.1667C1.48571 20.3692 1.65201 20.5333 1.85714 20.5333H5.57143C5.77656 20.5333 5.94286 20.3692 5.94286 20.1667V9.16667C5.94286 8.96416 5.77656 8.8 5.57143 8.8ZM9.28571 1.83333C9.28571 0.820811 10.1172 0 11.1429 0H14.8571C15.8828 0 16.7143 0.820811 16.7143 1.83333V20.1667C16.7143 21.1792 15.8828 22 14.8571 22H11.1429C10.1172 22 9.28571 21.1792 9.28571 20.1667V1.83333ZM18.5714 5.5C18.5714 4.48748 19.4029 3.66667 20.4286 3.66667H24.1429C25.1685 3.66667 26 4.48748 26 5.5V20.1667C26 21.1792 25.1685 22 24.1429 22H20.4286C19.4029 22 18.5714 21.1792 18.5714 20.1667V5.5ZM1.85714 7.33333C0.831471 7.33333 0 8.15414 0 9.16667V20.1667C0 21.1792 0.831471 22 1.85714 22H5.57143C6.5971 22 7.42857 21.1792 7.42857 20.1667V9.16667C7.42857 8.15414 6.5971 7.33333 5.57143 7.33333H1.85714Z" fill="white"/>
</svg>

<svg width="26" height="22" viewBox="0 0 26 22" fill="none" xmlns="http://www.w3.org/2000/svg"><path fill-rule="evenodd" clip-rule="evenodd" d="M14.857 1.467h-3.714a.37.37 0 00-.372.366v18.334a.37.37 0 00.372.366h3.714a.369.369 0 00.372-.366V1.833a.37.37 0 00-.372-.366zm9.286 3.666h-3.714a.37.37 0 00-.372.367v14.667c0 .202.166.366.372.366h3.714a.369.369 0 00.371-.366V5.5a.37.37 0 00-.371-.367zM5.57 8.8H1.857a.37.37 0 00-.371.367v11c0 .202.166.366.371.366h3.714a.369.369 0 00.372-.366v-11A.37.37 0 005.57 8.8zm3.715-6.967A1.847 1.847 0 0111.143 0h3.714c1.026 0 1.857.82 1.857 1.833v18.334A1.845 1.845 0 0114.857 22h-3.714a1.845 1.845 0 01-1.857-1.833V1.833zM18.57 5.5c0-1.013.832-1.833 1.858-1.833h3.714c1.026 0 1.857.82 1.857 1.833v14.667A1.845 1.845 0 0124.143 22h-3.714a1.845 1.845 0 01-1.858-1.833V5.5zM1.857 7.333A1.845 1.845 0 000 9.167v11C0 21.179.831 22 1.857 22h3.714c1.026 0 1.858-.82 1.858-1.833v-11A1.845 1.845 0 005.57 7.333H1.857z" fill="#fff"/></svg>
